Newaita-dark/mimetypes/128/application-x-tzo.svg

<?xml version="1.0" encoding="UTF-8"?>
<svg xmlns="http://www.w3.org/2000/svg" xmlns:xlink="http://www.w3.org/1999/xlink" width="128pt" height="128pt" viewBox="0 0 128 128" version="1.1">
<defs>
<linearGradient id="linear0" gradientUnits="userSpaceOnUse" x1="254" y1="233.5" x2="254" y2="254.666672" gradientTransform="matrix(0.250024,0,0,0.250024,-0.0000152602,53.75514)">
<stop offset="0" style="stop-color:rgb(0%,0%,0%);stop-opacity:0.27451;"/>
<stop offset="1" style="stop-color:rgb(0%,0%,0%);stop-opacity:0;"/>
</linearGradient>
<radialGradient id="radial0" gradientUnits="userSpaceOnUse" cx="450.908936" cy="189.579361" fx="450.908936" fy="189.579361" r="21.166656" gradientTransform="matrix(0.000000696681,-0.31253,-0.562554,-0.000000406154,212.49172,254.38133)">
<stop offset="0" style="stop-color:rgb(0%,0%,0%);stop-opacity:0.313725;"/>
<stop offset="0.222222" style="stop-color:rgb(0%,0%,0%);stop-opacity:0.27451;"/>
<stop offset="1" style="stop-color:rgb(0%,0%,0%);stop-opacity:0;"/>
</radialGradient>
<radialGradient id="radial1" gradientUnits="userSpaceOnUse" cx="450.908936" cy="189.579361" fx="450.908936" fy="189.579361" r="21.166656" gradientTransform="matrix(-0.000000696681,0.31253,0.562554,0.000000406154,-84.818081,-30.109915)">
<stop offset="0" style="stop-color:rgb(0%,0%,0%);stop-opacity:0.313725;"/>
<stop offset="0.222222" style="stop-color:rgb(0%,0%,0%);stop-opacity:0.27451;"/>
<stop offset="1" style="stop-color:rgb(0%,0%,0%);stop-opacity:0;"/>
</radialGradient>
<radialGradient id="radial2" gradientUnits="userSpaceOnUse" cx="450.908936" cy="189.579361" fx="450.908936" fy="189.579361" r="21.166656" gradientTransform="matrix(-0.000000696681,-0.31253,0.562554,-0.000000406154,-84.818081,254.38133)">
<stop offset="0" style="stop-color:rgb(0%,0%,0%);stop-opacity:0.313725;"/>
<stop offset="0.222222" style="stop-color:rgb(0%,0%,0%);stop-opacity:0.27451;"/>
<stop offset="1" style="stop-color:rgb(0%,0%,0%);stop-opacity:0;"/>
</radialGradient>
<radialGradient id="radial3" gradientUnits="userSpaceOnUse" cx="450.908936" cy="189.579361" fx="450.908936" fy="189.579361" r="21.166656" gradientTransform="matrix(0.000000696681,0.31253,-0.562554,0.000000406154,212.491714,-30.109917)">
<stop offset="0" style="stop-color:rgb(0%,0%,0%);stop-opacity:0.313725;"/>
<stop offset="0.222222" style="stop-color:rgb(0%,0%,0%);stop-opacity:0.27451;"/>
<stop offset="1" style="stop-color:rgb(0%,0%,0%);stop-opacity:0;"/>
</radialGradient>
<linearGradient id="linear1" gradientUnits="userSpaceOnUse" x1="254" y1="-168.666656" x2="254" y2="233.5" gradientTransform="matrix(0.250024,0,0,0.250024,0,53.755133)">
<stop offset="0" style="stop-color:rgb(45.882353%,45.882353%,45.882353%);stop-opacity:1;"/>
<stop offset="1" style="stop-color:rgb(38.039216%,38.039216%,38.039216%);stop-opacity:1;"/>
</linearGradient>
<linearGradient id="linear2" gradientUnits="userSpaceOnUse" x1="148.166687" y1="-168.666809" x2="148.166687" y2="233.499863" gradientTransform="matrix(1,0,0,1,-31.750023,0.000142415)">
<stop offset="0" style="stop-color:rgb(38.039216%,38.039216%,38.039216%);stop-opacity:1;"/>
<stop offset="1" style="stop-color:rgb(25.882353%,25.882353%,25.882353%);stop-opacity:1;"/>
</linearGradient>
<linearGradient id="linear3" gradientUnits="userSpaceOnUse" x1="148.166687" y1="-168.666809" x2="148.166687" y2="233.499863" gradientTransform="matrix(1,0,0,1,201.083313,0.000142415)">
<stop offset="0" style="stop-color:rgb(38.039216%,38.039216%,38.039216%);stop-opacity:1;"/>
<stop offset="1" style="stop-color:rgb(25.882353%,25.882353%,25.882353%);stop-opacity:1;"/>
</linearGradient>
<linearGradient id="linear4" gradientUnits="userSpaceOnUse" x1="960" y1="1115.118164" x2="960" y2="675.118103" gradientTransform="matrix(0.264583,0,0,0.264583,-116.416687,-215)">
<stop offset="0" style="stop-color:rgb(74.117647%,74.117647%,74.117647%);stop-opacity:1;"/>
<stop offset="1" style="stop-color:rgb(87.843137%,87.843137%,87.843137%);stop-opacity:1;"/>
</linearGradient>
<linearGradient id="linear5" gradientUnits="userSpaceOnUse" x1="164.041641" y1="64.166664" x2="164.041641" y2="0.666662" gradientTransform="matrix(1,0,0,1,-21.16667,42.33334)">
<stop offset="0" style="stop-color:rgb(74.117647%,74.117647%,74.117647%);stop-opacity:1;"/>
<stop offset="1" style="stop-color:rgb(87.843137%,87.843137%,87.843137%);stop-opacity:1;"/>
</linearGradient>
<linearGradient id="linear6" gradientUnits="userSpaceOnUse" x1="158.75" y1="-115.75" x2="158.75" y2="286.416656" gradientTransform="matrix(1,0,0,1,-21.16667,-52.91666)">
<stop offset="0" style="stop-color:rgb(45.882353%,45.882353%,45.882353%);stop-opacity:1;"/>
<stop offset="1" style="stop-color:rgb(38.039216%,38.039216%,38.039216%);stop-opacity:1;"/>
</linearGradient>
<linearGradient id="linear7" gradientUnits="userSpaceOnUse" x1="960" y1="1115.118164" x2="960" y2="675.118103" gradientTransform="matrix(0.264583,0,0,0.264583,116.416649,-215)">
<stop offset="0" style="stop-color:rgb(74.117647%,74.117647%,74.117647%);stop-opacity:1;"/>
<stop offset="1" style="stop-color:rgb(87.843137%,87.843137%,87.843137%);stop-opacity:1;"/>
</linearGradient>
<linearGradient id="linear8" gradientUnits="userSpaceOnUse" x1="164.041641" y1="64.166664" x2="164.041641" y2="0.666662" gradientTransform="matrix(1,0,0,1,211.666672,42.33334)">
<stop offset="0" style="stop-color:rgb(74.117647%,74.117647%,74.117647%);stop-opacity:1;"/>
<stop offset="1" style="stop-color:rgb(87.843137%,87.843137%,87.843137%);stop-opacity:1;"/>
</linearGradient>
<linearGradient id="linear9" gradientUnits="userSpaceOnUse" x1="158.75" y1="-115.75" x2="158.75" y2="286.416656" gradientTransform="matrix(1,0,0,1,211.666672,-52.91666)">
<stop offset="0" style="stop-color:rgb(45.882353%,45.882353%,45.882353%);stop-opacity:1;"/>
<stop offset="1" style="stop-color:rgb(38.039216%,38.039216%,38.039216%);stop-opacity:1;"/>
</linearGradient>
</defs>
<g id="surface1">
<path style=" stroke:none;fill-rule:nonzero;fill:rgb(0%,0%,0%);fill-opacity:0.196078;" d="M 15.875 112.136719 C 12.945312 112.136719 10.585938 109.777344 10.585938 106.84375 L 10.585938 106.183594 C 10.585938 109.113281 12.945312 111.472656 15.875 111.472656 L 111.136719 111.472656 C 114.066406 111.472656 116.429688 109.113281 116.429688 106.183594 L 116.429688 106.84375 C 116.429688 109.777344 114.066406 112.136719 111.136719 112.136719 Z M 15.875 112.136719 "/>
<path style=" stroke:none;fill-rule:nonzero;fill:url(#linear0);" d="M 20.507812 112.136719 L 107.167969 112.136719 L 107.167969 117.429688 L 20.507812 117.429688 Z M 20.507812 112.136719 "/>
<path style=" stroke:none;fill-rule:nonzero;fill:url(#radial0);" d="M 107.167969 112.136719 L 117.75 112.136719 L 117.75 106.84375 L 107.167969 106.84375 Z M 107.167969 112.136719 "/>
<path style=" stroke:none;fill-rule:nonzero;fill:url(#radial1);" d="M 20.507812 112.136719 L 9.921875 112.136719 L 9.921875 117.429688 L 20.507812 117.429688 Z M 20.507812 112.136719 "/>
<path style=" stroke:none;fill-rule:nonzero;fill:url(#radial2);" d="M 20.507812 112.136719 L 9.921875 112.136719 L 9.921875 106.84375 L 20.507812 106.84375 Z M 20.507812 112.136719 "/>
<path style=" stroke:none;fill-rule:nonzero;fill:url(#radial3);" d="M 107.167969 112.136719 L 117.75 112.136719 L 117.75 117.429688 L 107.167969 117.429688 Z M 107.167969 112.136719 "/>
<path style=" stroke:none;fill-rule:nonzero;fill:url(#linear1);" d="M 14.554688 11.585938 L 112.457031 11.585938 C 114.652344 11.585938 116.429688 13.363281 116.429688 15.554688 L 116.429688 108.167969 C 116.429688 110.359375 114.652344 112.136719 112.457031 112.136719 L 14.554688 112.136719 C 12.363281 112.136719 10.585938 110.359375 10.585938 108.167969 L 10.585938 15.554688 C 10.585938 13.363281 12.363281 11.585938 14.554688 11.585938 Z M 14.554688 11.585938 "/>
<path style=" stroke:none;fill-rule:nonzero;fill:rgb(100%,100%,100%);fill-opacity:0.392157;" d="M 14.554688 11.585938 C 12.355469 11.585938 10.585938 13.355469 10.585938 15.554688 L 10.585938 16.875 C 10.585938 14.675781 12.355469 12.90625 14.554688 12.90625 L 112.457031 12.90625 C 114.65625 12.90625 116.429688 14.675781 116.429688 16.875 L 116.429688 15.554688 C 116.429688 13.355469 114.65625 11.585938 112.457031 11.585938 Z M 14.554688 11.585938 "/>
<path style=" stroke:none;fill-rule:nonzero;fill:rgb(1.960784%,1.960784%,1.960784%);fill-opacity:0.235294;" d="M 14.554688 112.136719 C 12.355469 112.136719 10.585938 110.367188 10.585938 108.167969 L 10.585938 106.84375 C 10.585938 109.042969 12.355469 110.8125 14.554688 110.8125 L 112.457031 110.8125 C 114.65625 110.8125 116.429688 109.042969 116.429688 106.84375 L 116.429688 108.167969 C 116.429688 110.367188 114.65625 112.136719 112.457031 112.136719 Z M 14.554688 112.136719 "/>
<path style=" stroke:none;fill-rule:nonzero;fill:rgb(12.941177%,12.941177%,12.941177%);fill-opacity:1;" d="M 14.554688 11.210938 C 12.152344 11.210938 10.210938 13.152344 10.210938 15.554688 L 10.210938 108.167969 C 10.210938 110.566406 12.152344 112.511719 14.554688 112.511719 L 112.457031 112.511719 C 114.859375 112.511719 116.800781 110.566406 116.800781 108.167969 L 116.800781 15.554688 C 116.800781 13.152344 114.859375 11.210938 112.457031 11.210938 Z M 14.554688 11.960938 L 112.457031 11.960938 C 114.457031 11.960938 116.050781 13.554688 116.050781 15.554688 L 116.050781 108.167969 C 116.050781 110.164062 114.457031 111.761719 112.457031 111.761719 L 14.554688 111.761719 C 12.554688 111.761719 10.960938 110.164062 10.960938 108.167969 L 10.960938 15.554688 C 10.960938 13.554688 12.554688 11.960938 14.554688 11.960938 Z M 14.554688 11.960938 "/>
<path style="fill-rule:nonzero;fill:url(#linear2);stroke-width:3;stroke-linecap:round;stroke-linejoin:miter;stroke:rgb(12.941177%,12.941177%,12.941177%);stroke-opacity:1;stroke-miterlimit:4;" d="M 105.833643 -62.827032 L 169.32758 -62.827032 C 175.170772 -62.827032 179.920318 -58.093109 179.920318 -52.249917 L 179.920318 106.500548 C 179.920318 112.34374 175.170772 117.077663 169.32758 117.077663 L 105.833643 117.077663 C 99.990451 117.077663 95.256528 112.34374 95.256528 106.500548 L 95.256528 -52.249917 C 95.256528 -58.093109 99.990451 -62.827032 105.833643 -62.827032 Z M 105.833643 -62.827032 " transform="matrix(0.250024,0,0,0.250024,0,53.755133)"/>
<path style="fill-rule:nonzero;fill:url(#linear3);stroke-width:3;stroke-linecap:round;stroke-linejoin:miter;stroke:rgb(12.941177%,12.941177%,12.941177%);stroke-opacity:1;stroke-miterlimit:4;" d="M 338.670784 -62.827032 L 402.16472 -62.827032 C 408.007912 -62.827032 412.757459 -58.093109 412.757459 -52.249917 L 412.757459 106.500548 C 412.757459 112.34374 408.007912 117.077663 402.16472 117.077663 L 338.670784 117.077663 C 332.827592 117.077663 328.078045 112.34374 328.078045 106.500548 L 328.078045 -52.249917 C 328.078045 -58.093109 332.827592 -62.827032 338.670784 -62.827032 Z M 338.670784 -62.827032 " transform="matrix(0.250024,0,0,0.250024,0,53.755133)"/>
<path style=" stroke:none;fill-rule:nonzero;fill:rgb(0%,0%,0%);fill-opacity:0.196078;" d="M 10.585938 61.199219 L 116.429688 61.199219 L 116.429688 61.859375 L 10.585938 61.859375 Z M 10.585938 61.199219 "/>
<path style=" stroke:none;fill-rule:nonzero;fill:rgb(90.196079%,90.196079%,90.196079%);fill-opacity:0.588235;" d="M 10.585938 61.859375 L 116.429688 61.859375 L 116.429688 62.523438 L 10.585938 62.523438 Z M 10.585938 61.859375 "/>
<path style=" stroke:none;fill-rule:nonzero;fill:rgb(12.941177%,12.941177%,12.941177%);fill-opacity:0.992157;" d="M 10.585938 61.53125 L 116.429688 61.53125 L 116.429688 62.191406 L 10.585938 62.191406 Z M 10.585938 61.53125 "/>
<path style="fill-rule:nonzero;fill:url(#linear4);stroke-width:3;stroke-linecap:round;stroke-linejoin:round;stroke:rgb(12.941177%,12.941177%,12.941177%);stroke-opacity:1;stroke-miterlimit:4;" d="M 116.410758 -36.376433 C 110.551943 -36.376433 105.833643 -31.658133 105.833643 -25.799318 L 105.833643 69.457211 C 105.833643 75.316026 110.551943 80.034326 116.410758 80.034326 L 158.750465 80.034326 C 164.609281 80.034326 169.32758 75.316026 169.32758 69.457211 L 169.32758 -25.799318 C 169.32758 -31.658133 164.609281 -36.376433 158.750465 -36.376433 Z M 119.066755 -28.439691 L 156.110092 -28.439691 C 159.031688 -28.439691 161.390838 -26.080541 161.390838 -23.143321 L 161.390838 66.816838 C 161.390838 69.738434 159.031688 72.097584 156.110092 72.097584 L 119.066755 72.097584 C 116.129535 72.097584 113.770385 69.738434 113.770385 66.816838 L 113.770385 -23.143321 C 113.770385 -26.080541 116.129535 -28.439691 119.066755 -28.439691 Z M 119.066755 -28.439691 " transform="matrix(0.250024,0,0,0.250024,0,53.755133)"/>
<path style="fill-rule:nonzero;fill:url(#linear5);stroke-width:3;stroke-linecap:round;stroke-linejoin:miter;stroke:rgb(12.941177%,12.941177%,12.941177%);stroke-opacity:1;stroke-miterlimit:4;" d="M 127.003497 43.006612 L 148.17335 43.006612 C 154.016542 43.006612 158.750465 47.740535 158.750465 53.583727 L 158.750465 95.923433 C 158.750465 101.766625 154.016542 106.500548 148.17335 106.500548 L 127.003497 106.500548 C 121.160305 106.500548 116.410758 101.766625 116.410758 95.923433 L 116.410758 53.583727 C 116.410758 47.740535 121.160305 43.006612 127.003497 43.006612 Z M 127.003497 43.006612 " transform="matrix(0.250024,0,0,0.250024,0,53.755133)"/>
<path style="fill-rule:nonzero;fill:url(#linear6);stroke-width:3;stroke-linecap:round;stroke-linejoin:miter;stroke:rgb(12.941177%,12.941177%,12.941177%);stroke-opacity:1;stroke-miterlimit:4;" d="M 127.003497 -52.249917 L 148.17335 -52.249917 C 154.016542 -52.249917 158.750465 -47.515994 158.750465 -41.672802 L 158.750465 -25.799318 C 158.750465 -19.940502 154.016542 -15.206579 148.17335 -15.206579 L 127.003497 -15.206579 C 121.160305 -15.206579 116.410758 -19.940502 116.410758 -25.799318 L 116.410758 -41.672802 C 116.410758 -47.515994 121.160305 -52.249917 127.003497 -52.249917 Z M 127.003497 -52.249917 " transform="matrix(0.250024,0,0,0.250024,0,53.755133)"/>
<path style="fill-rule:nonzero;fill:url(#linear7);stroke-width:3;stroke-linecap:round;stroke-linejoin:round;stroke:rgb(12.941177%,12.941177%,12.941177%);stroke-opacity:1;stroke-miterlimit:4;" d="M 349.247898 -36.376433 C 343.389083 -36.376433 338.670784 -31.658133 338.670784 -25.799318 L 338.670784 69.457211 C 338.670784 75.316026 343.389083 80.034326 349.247898 80.034326 L 391.587605 80.034326 C 397.446421 80.034326 402.16472 75.316026 402.16472 69.457211 L 402.16472 -25.799318 C 402.16472 -31.658133 397.446421 -36.376433 391.587605 -36.376433 Z M 351.888271 -28.439691 L 388.931609 -28.439691 C 391.868828 -28.439691 394.227978 -26.080541 394.227978 -23.143321 L 394.227978 66.816838 C 394.227978 69.738434 391.868828 72.097584 388.931609 72.097584 L 351.888271 72.097584 C 348.966675 72.097584 346.607526 69.738434 346.607526 66.816838 L 346.607526 -23.143321 C 346.607526 -26.080541 348.966675 -28.439691 351.888271 -28.439691 Z M 351.888271 -28.439691 " transform="matrix(0.250024,0,0,0.250024,0,53.755133)"/>
<path style="fill-rule:nonzero;fill:url(#linear8);stroke-width:3;stroke-linecap:round;stroke-linejoin:miter;stroke:rgb(12.941177%,12.941177%,12.941177%);stroke-opacity:1;stroke-miterlimit:4;" d="M 359.840637 43.006612 L 380.994867 43.006612 C 386.838059 43.006612 391.587605 47.740535 391.587605 53.583727 L 391.587605 95.923433 C 391.587605 101.766625 386.838059 106.500548 380.994867 106.500548 L 359.840637 106.500548 C 353.981821 106.500548 349.247898 101.766625 349.247898 95.923433 L 349.247898 53.583727 C 349.247898 47.740535 353.981821 43.006612 359.840637 43.006612 Z M 359.840637 43.006612 " transform="matrix(0.250024,0,0,0.250024,0,53.755133)"/>
<path style="fill-rule:nonzero;fill:url(#linear9);stroke-width:3;stroke-linecap:round;stroke-linejoin:miter;stroke:rgb(12.941177%,12.941177%,12.941177%);stroke-opacity:1;stroke-miterlimit:4;" d="M 359.840637 -52.249917 L 380.994867 -52.249917 C 386.838059 -52.249917 391.587605 -47.515994 391.587605 -41.672802 L 391.587605 -25.799318 C 391.587605 -19.940502 386.838059 -15.206579 380.994867 -15.206579 L 359.840637 -15.206579 C 353.981821 -15.206579 349.247898 -19.940502 349.247898 -25.799318 L 349.247898 -41.672802 C 349.247898 -47.515994 353.981821 -52.249917 359.840637 -52.249917 Z M 359.840637 -52.249917 " transform="matrix(0.250024,0,0,0.250024,0,53.755133)"/>
</g>
</svg>

<svg xmlns="http://www.w3.org/2000/svg" width="128pt" height="128pt" viewBox="0 0 128 128"><defs><linearGradient id="a" gradientUnits="userSpaceOnUse" x1="254" y1="233.5" x2="254" y2="254.667" gradientTransform="matrix(.25002 0 0 .25002 0 53.755)"><stop offset="0" stop-opacity=".275"/><stop offset="1" stop-opacity="0"/></linearGradient><radialGradient id="b" gradientUnits="userSpaceOnUse" cx="450.909" cy="189.579" fx="450.909" fy="189.579" r="21.167" gradientTransform="matrix(0 -.31253 -.56255 0 212.492 254.381)"><stop offset="0" stop-opacity=".314"/><stop offset=".222" stop-opacity=".275"/><stop offset="1" stop-opacity="0"/></radialGradient><radialGradient id="c" gradientUnits="userSpaceOnUse" cx="450.909" cy="189.579" fx="450.909" fy="189.579" r="21.167" gradientTransform="matrix(0 .31253 .56255 0 -84.818 -30.11)"><stop offset="0" stop-opacity=".314"/><stop offset=".222" stop-opacity=".275"/><stop offset="1" stop-opacity="0"/></radialGradient><radialGradient id="d" gradientUnits="userSpaceOnUse" cx="450.909" cy="189.579" fx="450.909" fy="189.579" r="21.167" gradientTransform="matrix(0 -.31253 .56255 0 -84.818 254.381)"><stop offset="0" stop-opacity=".314"/><stop offset=".222" stop-opacity=".275"/><stop offset="1" stop-opacity="0"/></radialGradient><radialGradient id="e" gradientUnits="userSpaceOnUse" cx="450.909" cy="189.579" fx="450.909" fy="189.579" r="21.167" gradientTransform="matrix(0 .31253 -.56255 0 212.492 -30.11)"><stop offset="0" stop-opacity=".314"/><stop offset=".222" stop-opacity=".275"/><stop offset="1" stop-opacity="0"/></radialGradient><linearGradient id="f" gradientUnits="userSpaceOnUse" x1="254" y1="-168.667" x2="254" y2="233.5" gradientTransform="matrix(.25002 0 0 .25002 0 53.755)"><stop offset="0" stop-color="#757575"/><stop offset="1" stop-color="#616161"/></linearGradient><linearGradient id="g" gradientUnits="userSpaceOnUse" x1="148.167" y1="-168.667" x2="148.167" y2="233.5" gradientTransform="translate(-31.75)"><stop offset="0" stop-color="#616161"/><stop offset="1" stop-color="#424242"/></linearGradient><linearGradient id="h" gradientUnits="userSpaceOnUse" x1="148.167" y1="-168.667" x2="148.167" y2="233.5" gradientTransform="translate(201.083)"><stop offset="0" stop-color="#616161"/><stop offset="1" stop-color="#424242"/></linearGradient><linearGradient id="i" gradientUnits="userSpaceOnUse" x1="960" y1="1115.118" x2="960" y2="675.118" gradientTransform="matrix(.26458 0 0 .26458 -116.417 -215)"><stop offset="0" stop-color="#bdbdbd"/><stop offset="1" stop-color="#e0e0e0"/></linearGradient><linearGradient id="j" gradientUnits="userSpaceOnUse" x1="164.042" y1="64.167" x2="164.042" y2=".667" gradientTransform="translate(-21.167 42.333)"><stop offset="0" stop-color="#bdbdbd"/><stop offset="1" stop-color="#e0e0e0"/></linearGradient><linearGradient id="k" gradientUnits="userSpaceOnUse" x1="158.75" y1="-115.75" x2="158.75" y2="286.417" gradientTransform="translate(-21.167 -52.917)"><stop offset="0" stop-color="#757575"/><stop offset="1" stop-color="#616161"/></linearGradient><linearGradient id="l" gradientUnits="userSpaceOnUse" x1="960" y1="1115.118" x2="960" y2="675.118" gradientTransform="matrix(.26458 0 0 .26458 116.417 -215)"><stop offset="0" stop-color="#bdbdbd"/><stop offset="1" stop-color="#e0e0e0"/></linearGradient><linearGradient id="m" gradientUnits="userSpaceOnUse" x1="164.042" y1="64.167" x2="164.042" y2=".667" gradientTransform="translate(211.667 42.333)"><stop offset="0" stop-color="#bdbdbd"/><stop offset="1" stop-color="#e0e0e0"/></linearGradient><linearGradient id="n" gradientUnits="userSpaceOnUse" x1="158.75" y1="-115.75" x2="158.75" y2="286.417" gradientTransform="translate(211.667 -52.917)"><stop offset="0" stop-color="#757575"/><stop offset="1" stop-color="#616161"/></linearGradient></defs><path d="M15.875 112.137c-2.93 0-5.29-2.36-5.29-5.293v-.66c0 2.93 2.36 5.289 5.29 5.289h95.262c2.93 0 5.293-2.36 5.293-5.29v.66a5.282 5.282 0 0 1-5.293 5.294zm0 0" fill-opacity=".196"/><path d="M20.508 112.137h86.66v5.293h-86.66zm0 0" fill="url(#a)"/><path d="M107.168 112.137h10.582v-5.293h-10.582zm0 0" fill="url(#b)"/><path d="M20.508 112.137H9.922v5.293h10.586zm0 0" fill="url(#c)"/><path d="M20.508 112.137H9.922v-5.293h10.586zm0 0" fill="url(#d)"/><path d="M107.168 112.137h10.582v5.293h-10.582zm0 0" fill="url(#e)"/><path d="M14.555 11.586h97.902a3.97 3.97 0 0 1 3.973 3.969v92.613a3.97 3.97 0 0 1-3.973 3.969H14.555a3.97 3.97 0 0 1-3.97-3.969V15.555a3.97 3.97 0 0 1 3.97-3.97zm0 0" fill="url(#f)"/><path d="M14.555 11.586a3.96 3.96 0 0 0-3.97 3.969v1.32a3.96 3.96 0 0 1 3.97-3.969h97.902c2.2 0 3.973 1.77 3.973 3.969v-1.32c0-2.2-1.774-3.97-3.973-3.97zm0 0" fill="#fff" fill-opacity=".392"/><path d="M14.555 112.137a3.96 3.96 0 0 1-3.97-3.969v-1.324a3.96 3.96 0 0 0 3.97 3.969h97.902c2.2 0 3.973-1.77 3.973-3.97v1.325c0 2.2-1.774 3.969-3.973 3.969zm0 0" fill="#050505" fill-opacity=".235"/><path d="M14.555 11.21a4.34 4.34 0 0 0-4.344 4.345v92.613a4.342 4.342 0 0 0 4.344 4.344h97.902a4.342 4.342 0 0 0 4.344-4.344V15.555a4.34 4.34 0 0 0-4.344-4.344zm0 .75h97.902c2 0 3.594 1.595 3.594 3.595v92.613a3.577 3.577 0 0 1-3.594 3.594H14.555c-2 0-3.594-1.598-3.594-3.594V15.555c0-2 1.594-3.594 3.594-3.594zm0 0" fill="#212121"/><path d="M105.834-62.827h63.494c5.843 0 10.592 4.734 10.592 10.577V106.5c0 5.844-4.75 10.578-10.592 10.578h-63.494c-5.844 0-10.577-4.734-10.577-10.577V-52.25c0-5.844 4.733-10.578 10.577-10.578zm0 0" transform="matrix(.25002 0 0 .25002 0 53.755)" fill="url(#g)" stroke-width="3" stroke-linecap="round" stroke="#212121"/><path d="M338.67-62.827h63.495c5.843 0 10.592 4.734 10.592 10.577V106.5c0 5.844-4.75 10.578-10.592 10.578H338.67c-5.843 0-10.593-4.734-10.593-10.577V-52.25c0-5.844 4.75-10.578 10.593-10.578zm0 0" transform="matrix(.25002 0 0 .25002 0 53.755)" fill="url(#h)" stroke-width="3" stroke-linecap="round" stroke="#212121"/><path d="M10.586 61.2H116.43v.66H10.586zm0 0" fill-opacity=".196"/><path d="M10.586 61.86H116.43v.663H10.586zm0 0" fill="#e6e6e6" fill-opacity=".588"/><path d="M10.586 61.531H116.43v.66H10.586zm0 0" fill="#212121" fill-opacity=".992"/><path d="M116.41-36.376A10.555 10.555 0 0 0 105.835-25.8v95.256a10.555 10.555 0 0 0 10.577 10.577h42.34a10.555 10.555 0 0 0 10.577-10.577v-95.256a10.555 10.555 0 0 0-10.578-10.577zm2.657 7.936h37.043c2.922 0 5.28 2.36 5.28 5.297v89.96c0 2.921-2.358 5.28-5.28 5.28h-37.043a5.278 5.278 0 0 1-5.297-5.28v-89.96a5.28 5.28 0 0 1 5.297-5.297zm0 0" transform="matrix(.25002 0 0 .25002 0 53.755)" fill="url(#i)" stroke-width="3" stroke-linecap="round" stroke-linejoin="round" stroke="#212121"/><path d="M127.003 43.007h21.17c5.844 0 10.577 4.734 10.577 10.577v42.34c0 5.843-4.733 10.577-10.577 10.577h-21.17c-5.843 0-10.592-4.734-10.592-10.578v-42.34c0-5.842 4.75-10.576 10.592-10.576zm0 0" transform="matrix(.25002 0 0 .25002 0 53.755)" fill="url(#j)" stroke-width="3" stroke-linecap="round" stroke="#212121"/><path d="M127.003-52.25h21.17c5.844 0 10.577 4.734 10.577 10.577v15.874c0 5.858-4.733 10.592-10.577 10.592h-21.17c-5.843 0-10.592-4.734-10.592-10.592v-15.874c0-5.843 4.75-10.577 10.592-10.577zm0 0" transform="matrix(.25002 0 0 .25002 0 53.755)" fill="url(#k)" stroke-width="3" stroke-linecap="round" stroke="#212121"/><path d="M349.248-36.376A10.555 10.555 0 0 0 338.67-25.8v95.256a10.555 10.555 0 0 0 10.577 10.577h42.34a10.555 10.555 0 0 0 10.577-10.577v-95.256a10.555 10.555 0 0 0-10.577-10.577zm2.64 7.936h37.044a5.28 5.28 0 0 1 5.296 5.297v89.96c0 2.921-2.36 5.28-5.296 5.28h-37.044a5.274 5.274 0 0 1-5.28-5.28v-89.96a5.278 5.278 0 0 1 5.28-5.297zm0 0" transform="matrix(.25002 0 0 .25002 0 53.755)" fill="url(#l)" stroke-width="3" stroke-linecap="round" stroke-linejoin="round" stroke="#212121"/><path d="M359.84 43.007h21.155c5.843 0 10.593 4.734 10.593 10.577v42.34c0 5.843-4.75 10.577-10.593 10.577H359.84c-5.86 0-10.593-4.734-10.593-10.578v-42.34c0-5.842 4.734-10.576 10.593-10.576zm0 0" transform="matrix(.25002 0 0 .25002 0 53.755)" fill="url(#m)" stroke-width="3" stroke-linecap="round" stroke="#212121"/><path d="M359.84-52.25h21.155c5.843 0 10.593 4.734 10.593 10.577v15.874c0 5.858-4.75 10.592-10.593 10.592H359.84a10.582 10.582 0 0 1-10.593-10.592v-15.874c0-5.843 4.734-10.577 10.593-10.577zm0 0" transform="matrix(.25002 0 0 .25002 0 53.755)" fill="url(#n)" stroke-width="3" stroke-linecap="round" stroke="#212121"/></svg>
